X:17558
T:Tom Jones. JB.16
M:6/8
L:1/8
Q:100
S:James Biggins MS, Leeds, 1779.
R:Misc.
O:England
A:Yorkshire
N:Vickers has this slightly different.
Z:vmp.Nick Barber & Chris Partington
K:D
a3g3|fdf ecA|d2f ece|dcd ede|!fef ^gfg|a2d cdB|A3-"cr"A3|!
|D2FE2G|F2A EFG|F2d AB=c|B3-B2F|!
GFG AGA|BAB cBc|d2G FGE|D3-"cr"D3|]
